static/assets/images/networks/hyperevm-mono.svg

<svg width="343" height="256" viewBox="0 0 343 256" fill="none" xmlns="http://www.w3.org/2000/svg">
<path d="M342.988 126.767C343.301 154.992 337.408 181.962 325.832 207.73C309.302 244.422 269.67 274.424 233.48 242.488C203.965 216.458 198.489 163.616 154.27 155.88C95.7609 148.772 94.3529 216.772 56.1295 224.456C13.5257 233.132 -0.605988 161.316 0.0197717 128.701C0.64553 96.0854 9.30187 50.2463 46.326 50.2463C88.9297 50.2463 91.7977 114.902 145.874 111.4C199.429 107.741 200.367 40.4722 235.357 11.6726C265.55 -13.207 301.062 5.03453 318.844 34.9841C335.322 62.6861 342.571 95.1968 342.935 126.767H342.988Z" fill="black"/>
</svg>

<svg xmlns="http://www.w3.org/2000/svg" fill="none" viewBox="0 0 343 256"><path fill="#000" d="M342.988 126.767c.313 28.225-5.58 55.195-17.156 80.963-16.53 36.692-56.162 66.694-92.352 34.758-29.515-26.03-34.991-78.872-79.21-86.608-58.51-7.108-59.917 60.892-98.14 68.576-42.604 8.676-56.736-63.14-56.11-95.755.626-32.616 9.282-78.455 46.306-78.455 42.604 0 45.472 64.656 99.548 61.154 53.555-3.659 54.493-70.928 89.483-99.727 30.193-24.88 65.705-6.638 83.487 23.311 16.478 27.702 23.727 60.213 24.091 91.783z"/></svg>
